X:127
T: MARIA WOLLT IN DEN GARTEN GEHN
N: E1192
O: Europa, Mitteleuropa, Deutschland, Hessen, Ober - Lahnstein; Nieder -
R: Ansinge -, Brauchtums - Lied, Kirchen - Fest, Silvester, Namenstag
M: 2/4
L: 1/16
K: F
C2 | F2C2F2G2 | A2G2F2z2 |
c4=B2B2 | A2G2z2
C2 | F2C2F2G2 | A2G2F2z2 |
c4=B2B2 | A2G2z2
FA | c2A2c2A2 | d2d2d2
GA | B2G2B2G2 | c4c2z2 |
F2A2c2A2 | G2F2z2

@@@ Tune index: 4811
